X:1
T:Duett mit zwei obligaten Augengläsern
T:Duett mit zwei obligaten Augengläsern
T:Duet requiring two pairs of spectacles
T:Ludwig Van Beethoven
C:Ludwig Van Beethoven
%%score ( 1 2 ) ( 3 4 )
L:1/8
Q:1/4=144
M:4/4
K:Eb
V:1 alto nm="Viola" snm="Vla."
V:2 alto 
V:3 bass nm="Violoncello" snm="Vc."
V:4 bass 
V:1
!f!"^Allegro" u[G,Ee]2 |:!mf! v[G,E]6 E2 | (Ee) (e4 d2) | (d2 c4) B2 | (B2 A2) z2 A2 | %5
 (f2 ed) (cBcd) | (efgf) (edc=B) | (=Bc)(.F.A) (G_B)(.D.F) | E.E,.F,.G,!>(! .A,.B,.C.D!>)! | %9
!mf! EB,GE B,GA,F | G,GBA GBFB | z EGF EGDG | z (CED C)(.E.F.G) | A2 A,2- A,!<(!(.A.A!<)!.A) | %14
!f! G2 z2 z2 z vD | (uEF)GF EDC=B, | CD/E/ F/G/A/B/ .c.c (Tc3/2=B/4c/4) | f6 e2 | %18
 d2 z2 z ((.uB,B).B) | (B>G) .E-.E (e>c) .=A-.A | B2 z2 z!p! ((uB,B).B) | %21
 (B>(G) .E.E) (e>c) .=A-.A |"_cresc." (f>d) .B-.B (d>B) .F-.F | (B>F) .D-.D (F>D (.B,.B,)) | %24
!f! B,2 z B,/=A,/ B,2 z B,/A,/ | B,2 z2 z4 | z8 | z G,=B,D GG=A=B | (c=B)(.c.d) (ed)(.e.f) | %29
 g2 z!p! (g/f/) e2 z (g/f/) | e(g/f/) e(g/f/)!<(! e(g/f/ e/d/c/B/)!<)! | =A!f!F,=A,C FAc=e | %32
 f4!>(! _e4 | d2 z!>)!!p! (f/e/) d2 z (f/e/) | %34
!<(! d(f/e/) d(F/!<)!!>(!E/) D(!tenuto!C!tenuto!B,!>)!!tenuto!A,) |!p! G,4 =A,4 | %36
 (B,2 F3) G/F/ (E/D/C/B,/ | G4) =A4 | B2 z2 z2 z .D | .E.E z .[Ee] .[Fe].[Fe] z .[Fe] | %40
 .d.d f2 x (c/d/) .[Ge].[Gc] | [DB][DB] [Fd]2 z (=A/B/) .[Ee].[EA] | [DB] (F,B,C DB,DE) | %43
!p! F2 z F (FE) z D | (DE) z E (ED) z C | ([F,^C][F,D])(.D.F,) .=C.F,.=B,.F, | %46
 .C.F,.C.F, ._B,.F,.=A,.F, | (B,/D/F/B/) (=A/B/)(_A/B/) (D/F/B/d/) (^c/d/)(c/d/) | %48
"_cresc." (F/B/d/f/) (=e/f/)(e/f/) (!tenuto!g!tenuto!g!tenuto!=a!tenuto!b) | %49
!p! D4 (FE)!tenuto!D!tenuto!C | B,2 z2"_cresc." (B,/D/F/B/) (=A/B/)(A/B/) | %51
 (D/.F/B/d/) (c/d/)(c/d/) (e/B/).=A/B/ (A/B/)G/B/ | %52
 (F/B/).=A/.B/ (A/B/)F/B/"_cresc." (G/B/)A/B/ (A/B/)G/c/ | (FB/d/) .f.f (fd/B/) (fd/B/) | %54
!f!!<(! !trill(!Tc8!<)! | d2 z!p! .d e2 z .e | d2 z .d e2 z .e | %57
 d2 z2 z/"_cresc." (F,/G,/=A,/ B,/A,/B,/D/) | (C/B,/=A,/G,/ F,/=E,/F,/G,/) (A,F,)G,A, | %59
 (B,/D/E/F/ ^F/G/A/=A/) (B/=B/c/^c/ d/_B/).=F/.D/ |!<(! !trill(!TC8!<)! | %61
!f! B,2 z2 z!mp! .d e/c/=A/E/ |!p! Ddfd Bf=Af | B2 z2 z/!mp! D/E/D/ E/C/A,/E,/ | %64
 D, DFD"_cresc." B,F=A,F | B,.F=A,F !tenuto!B,(.D/!f!B,/) !tenuto![E=A]!tenuto![Ec] | %66
 !tenuto![DB]2 z2 z!p! =B c/_A/F/E/ | D2 z2 z .G A/F/D/C/ | B,2 z2 z .=B, C/A,/F,/E,/ |1 %69
 D,2 z2 z2!f! [G,Ee]2 :|2"_cresc." D,^F,G,A, G,2!f! [G,Ec]2 || C,4 z/ C,/D,/E,/ F,/G,/A,/B,/ | %72
 C2 z2 z/ C/D/E/ F/G/=A/=B/ | !breath!c(cec) .=Ac.Gc | !breath!^F(FAE) .D.A.C.A | %75
 =B,2 z2 z!mf! vG,/=A,/ =B,/C/D/E/ | F2 z2 z/ uF/G/=A/ =B/c/d/e/ | %77
 !breath!f"_cresc."(dfd) .=B.d.F.d | !breath!E(cec) .G.c.E.c | z (=BdB) .F.B.D.F | %80
!f! [E,C]2 z!mp! .G (GF) z .E | (ED) z .F (FE) z .D |!p! .E.G,.E.G, .D.G,.C.G, | %83
 .=B,.G,.D.G, .C.G,.B,.G, | C2 z!mp! .e (e_d) z .c | (cB) z ._d (dc) z .B | %86
 !tenuto!c2 .C.E, .B,.E, .A,.E, | .G,.E,.B,.E, .A,.E,.G,.E, | %88
 (A,/E/).c/.E/"_sempre" c/.E/(c/E/)!p! (A,/E/).c/.E/ c/.E/(c/E/) | %89
 A,/E/c/E/ c/E/(c/E/) (A,/F/)(c/F/) (A,/F/)(c/F/) | %90
 (A,/F/)B/F/ B/F/(B/F/) (A,/F/)(B/F/) (A,/F/)(B/F/) | %91
 (A,/F/)(d/F/) A,/F/(d/F/) A,/F/(d/F/) (B,/F/)(d/F/) | %92
 (B,/G/)e/G/ e/G/e/G/ (B,/G/)(e/G/) (B,/G/)(e/G/) | %93
 (B,/G/)(e/G/) (B,/G/)(e/G/) (C/G/)(e/G/) (B,/G/)(e/G/) | %94
 (=A,/_G/)e/G/ e/G/(e/G/) (A,/G/)(e/G/) (A,/G/)(e/G/) | %95
"_cresc." (=A,/_G/)(e/G/) (A,/G/)(e/G/) (A,/G/)(e/G/) (A,/G/)(e/G/) | %96
 [B,Fd]/ B,/C/D/ E/F/G/=A/ B/c/d/c/ B/c/d/c/ | [DB]2 z2 z4 | %98
 z/ .B,/C/.D/ .E/.F/.G/._A/ B/.c/d/.e/ f/.e/d/c/ | B8- | %100
 [EB]/E,/F,/.G,/ A,/B,/C/D/ E/F/G/A/ B/c/_d/=d/ |!<(! (ed)cB (=AB)cB!<)! | %102
!ff! [B,_A]2 z2 z2 [Df]2 | !tenuto!A2 z2 z2 A/B/A/G/ | .A2 z2 z2 [Df]2 | %105
 !tenuto!A2 z2 z2 A/B/A/G/ | A2"^pizz." D2 z2"^arco" A/B/A/G/ | %107
!p! A2"^pizz." D2 z2"^arco" A/B/.A/G/ | %108
"^pizz." AD z"^arco" (A/4B/4.A/4G/4 A)"^pizz."D z"^arco" (A/4B/4A/4G/4 | %109
 A)"^pizz."D z!pp!"^arco"[Q:1/4=71]"^Adagio" (!tenuto!A/4!tenuto!B/4!tenuto!A/4!tenuto!G/4) !fermata!A2!f! [G,Ee]2 | %110
!mf! [G,E]6 E2 | (Ee) (e4 d2) | (dc) (c4 B2) | (B2 A2) z2 A2 | (f2 ed) (cBcd) | (efgf) (edc=B) | %116
 (=Bc)(F.A) (G_B)(.D.F) | EE,F,!>(!G, A,B,!>)!CD |!mf! EGBA GBFB | z =EGF EGE_d | z c_dc =Bc_Bc | %121
 A!<(! F,A,C FA!<)!cA |!f! F2 (f4 e2) | (ed) (d4 c2) | (cB) (B4 =A2) | %125
!p! _Af/d/ B/A/.F/!p!D/ B,/A,/B,/A,/ B,/A,/B,/A,/ | %126
 G,/B,/E,/B,/ G,/B,/E,/B,/ C,/=A,/E,/A,/ C,/A,/E,/A,/ | %127
 D,f/d/ B/A/F/D/"_cresc." B,/A,/B,/A,/ B,/A,/B,/A,/ | %128
 G,/B,/E,/B,/ G,/B,/E,/B,/ C,/=A,/E,/A,/ C,/A,/E,/A,/ |!f! D,2 z B,/=A,/ B,2 z B,/A,/ | B,2 z2 z4 | %131
!f! [G,=Ec]2 z2 [C,G,E]2 z2 | [C,G,=E]2 z2 z4 | z"_dim." C.=EG ccd=e | %134
[K:treble] f2 z!p! (a/g/ f2 z a/g/ |!<(! f)(a/g/) f(a/g/) fedc!<)! | %136
 d[K:alto]!mf! D,F,=A, B,(!tenuto!D!tenuto!F!tenuto!=A) |!>(! B6!>)! _A2 | %138
!p! G2 z (B/A/) .G2 z (B/A/) | %139
!<(! .G(B/A/) .G(B/!<)!A/)"_calando"!>(! G(!tenuto!F!tenuto!E!tenuto!_D)!>)! |"_a tempo" C4 =D4 | %141
 (E2 B,3) (C/ B,/A,/G,/F,/E,/) | C,4 D,4 | E,(E/D/) EF GGGG | ([A,A-]4 [B,A]4) | %145
!p! .G.G B2 z (F/G/) .[CA].[CF] | .[G,E].[G,E] [B,G]2 z (D/E/) .[A,F].[A,D] | %147
 [G,E] (B,E!<(!F GEG!<)!A) | B2 z!mp! B (BA) z .G | (GA) z .A (AG) z .F | %150
 (GB,)!p!.G,.B, .F,.B,.E,.B, | .F,.B,.F,.B, ._E,.B,.D,.B, | %152
!p! (E,/G,/B,/E/) D/E/(D/E/)"_cresc." (G,/B,/E/G/) (^F/G/)(F/G/) | %153
 (B,/E/G/B/) (A/B/)(A/B/) (!tenuto!c!tenuto!c!tenuto!d!tenuto!e) |!p! G,4 (B,A,G,F,) | %155
 E,2 z2"_cresc." (E,/G,/B,/E/) (D/E/)(D/E/) | %156
 (G,/B,/E/G/) (^F/G/)(F/G/) (A/e/).d/.e/ (d/e/).c/.e/ | %157
 (B/e/).d/.e/ (d/e/).B/.e/ (c/e/).d/.e/ (d/e/).c/.e/ |[K:treble] (Be/g/) .b.b (bg/e/) (bg/e/) | %159
!f!!<(! !trill(!Tf8!<)! | g2[K:alto] z!p! .G A2 z A | G2 z .G A2 z .A | G2 z2 z4 | %163
 z (B,/C/ D/E/F/G/) (A/G/F/E/) (D/B,/C/D/) |!f! (E/B,/C/D/) (E/F/G/A/) (BG/E/) (BG/E/) | %165
 TF4!<(! Tf4!<)! | e2 z2 z .G!f! A/F/D/A,/ | %167
 !wedge!G,!wedge!G!wedge!B!wedge!G !wedge!E!wedge!B!wedge!D!wedge!B | E2 z2 z .G A/F/D/A,/ | %169
 !wedge!G,!wedge!G!wedge!B!wedge!G !wedge!E!wedge!B!wedge!D!wedge!B | %170
 !wedge!E!wedge!B!wedge!D!wedge!B !wedge!E!wedge!B!wedge!B,[B,Fd] | %171
 [B,Ge]2 z2 z!p! .=E F/_D/B,/A,/ | G,2 z2 z .C _D/B,/G,/F,/ | =E,2 z2 z .=A, B,/G,/=E,/_D,/ | %174
 C,2 z2 z G=E=D | C2 z2 z BGF | =E2 z2 z dBA | GBGF =E2 =e2 | F2 f2 A2 a2 |!p! A,4 z B,CD | %180
 E2 e2 G2!f! g2 |!p! =A,8 |!>(! _A,8 | [E,G,]8!>)! |!pp! (C8 | B,)!p!E!<(!GB (eB).B.B!<)! | %186
 (GE).E.E (F!>(!B,)(.B,.B,)!>)! |!p! E4- E(.G.E.G) | %188
 (!tenuto!D2 !tenuto!D2) (!tenuto!D2 !tenuto!D2) | (E4 (3E).G.G (3.E.G.G | %190
 (!tenuto!D2 !tenuto!D2) (!tenuto!D2 !tenuto!D2) |"_cresc. al Fine" [G,E]2 z2 z4 | [G,EB]2 z2 z4 | %193
 [G,Ee]2 z2 z GED | CECB, A,CA,G, |!ff! F,2 z2 [A,Fc]2 z2 | [B,GB]2 z2 [B,Fd]2 z2 | %197
 [B,Ge]2 z2 !fermata!z2 |] %198
V:2
 x2 |: x8 | x8 | x8 | x8 | x8 | x8 | x8 | x8 | x8 | x8 | x8 | x8 | x8 | x8 | x8 | x8 | x8 | x8 | %19
 x8 | x8 | x8 | x8 | x8 | x8 | x8 | x8 | x8 | x8 | x8 | x8 | x8 | x8 | x8 | x8 | x8 | x8 | x8 | %38
 x8 | x8 | x8 | x8 | x8 | F,2 z F, F,2 z F, | F,2 z F, F,2 x2 | x8 | x8 | x8 | x8 | x8 | x8 | x8 | %52
 x8 | x8 | x8 | x8 | x8 | x8 | x8 | x8 | x8 | x8 | x8 | x8 | x8 | x8 | x8 | x8 | x8 |1 x8 :|2 x8 || %71
 x8 | x8 | x8 | x8 | x8 | x8 | x8 | x8 | x8 | x8 | x8 | x8 | x8 | x8 | x8 | x8 | x8 | x8 | x8 | %90
 x8 | x8 | x8 | x8 | x8 | x8 | x8 | x8 | x8 | D8 | x8 | x8 | x8 | x8 | x8 | x8 | x8 | x8 | x8 | %109
 x8 | x8 | x8 | x8 | x8 | x8 | x8 | x8 | x8 | x8 | x8 | x8 | x8 | x8 | x8 | x8 | x8 | x8 | x8 | %128
 x8 | x8 | x8 | x8 | x8 | x8 |[K:treble] x8 | x8 | x[K:alto] x7 | x8 | x8 | x8 | x8 | x8 | x8 | %143
 x8 | x8 | x8 | x8 | x8 | x8 | x8 | x8 | x8 | x8 | x8 | x8 | x8 | x8 | x8 |[K:treble] x8 | x8 | %160
 x2[K:alto] x6 | x8 | x8 | x8 | x8 | x8 | x8 | x8 | x8 | x8 | x8 | x8 | x8 | x8 | x8 | x8 | x8 | %177
 x8 | x8 | x8 | x8 | E,8 | E,8 | x8 | E,8- | E, x7 | x8 | G,4- G,(.B,.G,.B,) | %188
 ((A,B,)(A,B,)) ((A,B,)(A,B,)) | (G,4 (3G,).B,.B, (3.G,.B,.B, | ((A,B,)(A,B,)) ((A,B,)(A,B,)) | %191
 x8 | x8 | x8 | x8 | x8 | x8 | x6 |] %198
V:3
 z2 |:!mf! E,G,B,G, E,G,D,G, | C,E,G,E, C,E,B,,E, | A,,C,E,C, A,,C,G,,C, | %4
 F,,A,,C,A,, F,,A,,E,,A,, | D,,2 B,,4 A,,2 | G,,2 G,,2 z2 G,,2 | A,,2 A,2 B,2 B,,2 | %8
 E,2 z2 z2!f! [G,,E,E]2 | E,6 E,2 | (E,E) (E4 D2) | (D2 C4) B,2 | (B,2 A,2) z2 A,2 | %13
 (F2 ED) (CB,CD) | (EFGF) (EDC=B,) | (CD)(.E.D) CB,A,G, | A,2 z2 z2 A,,2 | %17
 =A,,B,,/C,/ D,/E,/F,/G,/ .=A,.A, (TA,3/2G,/4A,/4) | %18
 (B,,/F,/)D/F,/ D/F,/(D/F,/) (B,,/F,/)D/F,/ D/F,/(D/F,/) | %19
 (B,,/.G,/)E/G,/ E/G,/(E/G,/) (B,,/_G,/)E/G,/ E/G,/(E/G,/) | %20
 (B,,/!>(!F,/)D/F,/ D/F,/(D/F,/)!>)!!p! (B,,/F,/)D/F,/ D/F,/(D/F,/) | %21
 (B,,/G,/)E/G,/ E/G,/(E/G,/) (B,,/_G,/)E/G,/ E/G,/(E/G,/) | [B,,F,D]2 z2 z4 | %23
"_cresc." (B,>F,) .D,-.D, (F,>D, (.B,,).B,,) |!f! B,,2 z (B,,/=A,,/) B,,2 z C,/A,,/ | B,,2 z2 z4 | %26
!f! [G,,D,=B,G] G,,=B,,D, G,B,D^F | G4 =F4 | (ED)(E.=B,) (CB,)(.CD) | E2 z!p! (E/D/) C2 z (E/D/) | %30
 C(E/D/) C(E/D/)!<(! (CD)(E=E)!<)! |!f! F2 z2 z4 | z F,,=A,,C,!>(! F,^F,G,=A,!>)! | %33
 .B,!p!(=F,G,=A,) .B,(F,G,A,) | .B,/(F,/G,/=A,/) .B,/(F,/G,/A,/) B,2 z2 | %35
!p! (B,,E,G,E,) (B,,C,E,C,) | B,,(B,DB, F,D,B,,D,) | (B,,E,G,E,) (B,,C,E,C,) | %38
 (B,,D,F,).B, (=A,B,C)._A, | .G,.G,.B,.G, .=A,.B,C.A, | .B,.B, !>!D2 z .E,.E,.E, | %41
 .F,.F, F,2 z .F,,.F,,.F,, | B,,2 z2 z4 | D2 (D2 C2 =B,2 | .C2) (C2 _B,2 =A,2 | %45
 .B,2) z .F (FE) z .D | (DE) z .E (ED) z C | D2 z2"_cresc." (B,,/D,/F,/B,/) (=A,/B,/)(A,/B,/) | %48
 (D,/F,/B,/D/) (^C/D/)(C/D/) E2 z2 |!p! (B,,D,B,,F,,) (.=A,,C,A,,F,,) | %50
"_cresc." (B,,/D,/F,/B,/) (=A,/B,/)(A,/B,/) (D,/F,/B,/D/) (^C/D/)(C/D/) | %51
 (F,/B,/D/F/) (.=E/F/)(E/F/)!f! G2 z!p! E | D2 z .D E2 z .E | D2 z2 z4 | %54
 z[K:treble]!f! (vF2 G) (=AFGA) | !breath!B!p!v=A/B/"_spiccato" A/B/F/B/ G/B/A/B/ A/B/G/B/ | %56
 F/B/=A/B/ A/B/F/B/ G/B/A/B/ A/B/G/B/ |"_cresc." FG/=A/ B/c/d/e/ (.f.f) (f d/B/) | !trill(!Tc8 | %59
 B2 x2 z4 |[K:bass]!<(! (F,,E,/D,/) (C,/B,,/=A,,/G,,/) F,,F,,G,,A,,!<)! | %61
 !wedge!B,,!wedge!D,!wedge!F,!wedge!D, !wedge!B,,!wedge!F,!wedge!=A,,!wedge!F, | %62
 B,,2 z2 z!mp! .D E/C/=A,/F,/ | %63
 !wedge!B,!p!!wedge!D,!wedge!F,!wedge!D, !wedge!B,,!wedge!F,!wedge!=A,,!wedge!F, | %64
 B,,2 z2 z"_cresc." .D, E,/C,/=A,,/F,,/ | %65
 !wedge!B,,!wedge!D, E,/C,/=A,,/F,,/ B,,(D,/B,,/)!f! F,/C,/A,,/F,,/ | %66
 !tenuto!B,,2 z2 z!p! .=B, C/_A,/F,/E,/ | D,2 z2 z .G, A,/F,/D,/C,/ | %68
 B,,2 z2 z .=B,, C,/A,,/F,,/E,,/ |1"_cresc." D,,=A,,.B,,C, .B,,_A,,G,,F,, :|2 %70
"_cresc." D,,^F,,G,,A,, G,,=F,,E,,!f!D,, || C,,E,G,E, C,E,B,,E, | A,,C,E,C, A,,C,G,,C, | %73
 ^F,,2 z2 z/ uD,,/=E,,/^F,,/ G,,/=A,,/=B,,/C,/ | D,2 z2 z D,/=E,/ ^F,/D,/E,/F,/ | %75
 G,!mf! (=F,_A,F,) .D,.F,.C,.F, | =B,,(D,F,D,) .B,,.D,._A,,.D, | %77
 G,,2 z2 z"_cresc." v^F,/G,/ A,/G,/F,/G,/ | G,,2 z2 z v^F,/G,/ A,/G,/F,/G,/ | %79
 G,,2 z2 z v^F,/G,/ A,/G,/F,/G,/ | C,.G,.E,.G, .D,.G,.C,.G, | .=B,,.G,.D,.G, .C,.G,.B,,.G, | %82
 C,2 z!mp! .G (GF) z E | (ED) z .F (FE) z .D | .E!p!.E.C.E .B,.E.A,E | .G,E.B,E .A,E.G,.E | %86
 A,E z!mp! .E (E_D) z .C | (CB,) z ._D (DC) z .B, | !tenuto!C2 z2 z2!mf! A,2 | %89
"_espressivo cantabile" (C2 A,2) !tenuto!F,2 !tenuto!E,2 | !tenuto!D,2 z2 z2 D2 | %91
 (F2 D2) !tenuto!B,2 !tenuto!A,2 | !tenuto!G,2 z2 z2 E,2 | (G,2 E,2) !tenuto!C,2 !tenuto!B,,2 | %94
 !tenuto!=A,,2 z2 z2 E,2 | (_G,2 E,2) (C,2 !tenuto!=A,,2) | (F,8 | F,8) | F,8- | F,8 | (E,8 | %101
 E,8) |!ff! [F,,D,]2 z2 z2 .[B,,F,D]2 | !tenuto![B,,F,D]2 z2 z2 F/G/F/=E/ | .F2 z2 z2 .[B,,F,D]2 | %105
 !tenuto![B,,F,D]2 z2 z2 F/G/F/=E/ | F2 z2"^pizz." [B,,F,]2 z2 | F2 z2 [B,,F,]2 z2 | %108
 z2 [B,,F,]2 z2 [B,,F,]2 | %109
 z2 [B,,F,]!pp!"^arco" (!tenuto!F/4G/4!tenuto!F/4!tenuto!=E/4) !fermata!F2 z2 | E,G,B,G, E,G,D,G, | %111
 C,E,G,E, C,E,B,,E, | A,,C,E,C, A,,C,G,,C, | F,,A,,C,A,, F,,A,,E,,A,, | D,,2 vB,,4 A,,2 | %115
 G,,2 z2 z2 G,2 | A,2 A,2 B,2 B,,2 | E,2 z2 z2!f! [G,,E,E]2 | E,2 (E4 _D2) | (_DC) (C4 B,2) | %120
 (B,A,) (A,4 G,2) | F,2 z2 z4 | z A,CB, A,C=A,C | B,B,,B,=A, B,F,E,A, | z D,F,E, D,F,C,F, | %125
 B,,2 z2[K:treble]!p! (D3 (E/F/)) | (G3 (A/B/)) .=A.A (B/A/G/A/) | B2 z2"_cresc." (D3 (E/F/)) | %128
 (G3 (A/B/) .=A).A (B/A/G/A/) |!f! B2 z[K:bass] (B,,/=A,,/) B,,2 z B,,/A,,/ | B,,2 z2 z4 | %131
 B,,2 z (B,/=A,/) B,2 z (B,/A,/) | B, C,,=E,,G,, C,=E,G,=B, |"_dim." C6 _B,2 | %134
 A,2 z!p! (F,/G,/) A,2 x F,/G,/ |!<(! A,(F,/G,/) A,(F,/G,/) A,CB,=A,!<)! |!mf! B,2 z2 z4 | %137
 z!>(! B,,D,F, B,B,CD!>)! |!p! EB,CD EB,CD | %139
 (E/!<(!B,/)(C/D/) (E/B,/)(C/D/)!<)![K:treble]"_calando"!>(! E(!tenuto!E!tenuto!F!tenuto!G) | %140
"_a tempo" (Ac)!>)!(Ac) (AB)(AB) | (GB)(GB) (GB)(GB) | ((Ac))(Ac) (AB)(AB) | %143
 G2[K:bass] G,,2 z G,E,=B,, | C,C,E,C, D,D,F,D, | .E,.E, G,2 z .A,,.A,,.A,, | %146
 .B,,.B,, B,,2 z .B,,.B,,.B,, | E,2 z2 z (B,EF) | .G.B,!mp!.G.B, .F.B,.E.B, | %149
 .F.B,.F.B, .E.B,.D.B, | E2 z[K:treble]!mp! .B (BA) z .G | (GA) z .A (AG) z .F | %152
 G2 z2[K:bass] (E,,/G,,/B,,/E,/) (D,/E,/)(D,/E,/) | (G,,/B,,/E,/G,/) (^F,/G,/)(F,/G,/) A,2 z2 | %154
 (E,G,E,B,, (D,)F,D,B,,) | (E,,/G,,/B,,/E,/) (D,/E,/)(D,/E,/) (G,,/B,,/E,/.G,/) (^F,/G,/)(F,/G,/) | %156
 (B,,/E,/G,/B,/) (=A,/B,/)(A,/B,/) C2 z _A, | G,2 z .G, A,2 z .A, | G,2 z2 z4 | %159
 z[K:treble]!f! (B2 c) (dBcd) | %160
[K:treble] !breath!e!p! d/e/"_spiccato\n" d/e/B/e/ c/e/d/e/ d/e/c/e/ | %161
 B/e/d/e/ d/e/B/e/ c/e/d/e/ d/e/c/e/ | B"_cresc."c/d/ e/f/g/a/ (bg/e/) (bg/e/) | !trill(!Tf8 | %164
!f! e2 z2 z4 |[K:bass] z!f! (A,/G,/ F,/E,/D,/C,/!<(! B,,)B,B,B, | %166
 !wedge!E, !wedge!G,!<)!!wedge!B,!wedge!G, !wedge!E,!wedge!B,!wedge!D,!wedge!B, | %167
 E,2 z2 z .G, A,/F,/D,/B,,/ | %168
 !wedge!E, !wedge!G,,!wedge!B,,!wedge!G,, !wedge!E,,!wedge!B,,!wedge!D,,!wedge!B,, | %169
 E,,2 z2 z .G, A,/F,/D,/B,,/ | !wedge!E,!wedge!G, A,/F,/D,/B,,/ !wedge!E,!wedge!G, A,/F,/D,/B,,/ | %171
 E,2 z2 z!p! .=E, F,/_D,/B,,/A,,/ | G,,2 z2 z .C, _D,/B,,/G,,/F,,/ | %173
 =E,,2 z2 z .=A,, B,,/G,,/=E,,/_D,,/ | C,,G,=E,=D, C,2 z2 | z B,G,F, =E,2 z2 | z _DB,A, G,B,G,F, | %177
 =E,G,E,=D,!<(! C,E,C,B,, | A,,C,A,,G,, F,,A,,F,,E,,!<)! |!p! D,,F,D,C,!<(! B,,D,B,,A,, | %180
 G,,B,,G,,F,, E,,G,,!<)!E,,!f!D,, |!p! C,,2 (C,6 | C,2) (_C,6 | C,2) B,,6 |!pp! F,8 | %185
 [B,,G,]2 z2 z4 | [B,,G,]2 z2 [B,,A,]2 z2 |!p! E,,B,,G,,F,, E,,4- | E,,2 E,2 E,2 E,2 | %189
 (3E,,B,,=A,, (3B,,G,,F,, E,,4- | E,,2 E,2 E,2 E,2 |"_cresc. al Fine\n" E,,E,B,,A,, G,,B,,G,,F,, | %192
 E,,E,B,,A,, G,,B,,G,,F,, | E,,B,G,F, E,G,E,D, | C,E,C,B,, A,,C,A,,G,, | F,,2 z2 A,,2 z2 | %196
 B,,2 z2 B,,2 z2 | E,,2 z2 !fermata!z2 |] %198
V:4
 x2 |: x8 | x8 | x8 | x8 | x8 | x8 | x8 | x8 | x8 | x8 | x8 | x8 | x8 | x8 | x8 | x8 | x8 | x8 | %19
 x8 | x8 | x8 | x8 | x8 | x8 | x8 | x8 | x8 | x8 | x8 | x8 | x8 | x8 | x8 | x8 | x8 | x8 | x8 | %38
 x8 | x8 | x8 | x8 | x8 | x8 | x8 | x8 | x8 | x8 | x8 | x8 | x8 | x8 | x8 | x8 | x[K:treble] x7 | %55
 x8 | x8 | x8 | x8 | x8 |[K:bass] x8 | x8 | x8 | x8 | x8 | x8 | x8 | x8 | x8 |1 x8 :|2 x8 || x8 | %72
 x8 | x8 | x8 | x8 | x8 | x8 | x8 | x8 | x8 | x8 | x8 | x8 | x8 | x8 | x8 | x8 | x8 | x8 | x8 | %91
 x8 | x8 | x8 | x8 | x8 | (B,,8 | B,,)(=A,,B,,A,, B,,A,,B,,A,,) | _A,,8- | %99
 A,,(G,,A,,G,, A,,G,,A,,A,,) | (G,,8 | G,,8) | x8 | x8 | x8 | x8 | x8 | x8 | x8 | x8 | x8 | x8 | %112
 x8 | x8 | x8 | x8 | x8 | x8 | x8 | x8 | x8 | x8 | x8 | x8 | x8 | x4[K:treble] x4 | x8 | x8 | x8 | %129
 x3[K:bass] x5 | x8 | x8 | x8 | x8 | x8 | x8 | x8 | x8 | x8 | x4[K:treble] x4 | x8 | x8 | x8 | %143
 x2[K:bass] x6 | x8 | x8 | x8 | x8 | x8 | x8 | x3[K:treble] x5 | x8 | x4[K:bass] x4 | x8 | x8 | %155
 x8 | x8 | x8 | x8 | x[K:treble] x7 |[K:treble] x8 | x8 | x8 | x6 x/ e/g/!trill)!f/ | x8 | %165
[K:bass] x8 | x8 | x8 | x8 | x8 | x8 | x8 | x8 | x8 | x8 | x8 | x8 | x8 | x8 | x8 | x8 | x8 | x8 | %183
 x8 | =A,,8 | x8 | x8 | x8 | x8 | x8 | x8 | x8 | x8 | x8 | x8 | x8 | x8 | x6 |] %198

